!!!COM: Robert Franz
!!!CNT: Deutscher
!!!TXO: Deutsche 
!!!OTL: Fur Musik
!!!OPS: Op. 10
!!!ONM: No. 1
!!!ONB: Original key: Gb Major
!!!LYR: E. Geibel
!!!ENC: Brian Bice
!!!YOR: Vocal Album, G. Schirmer, Inc., 1907
!!!ODT: 1860/
!!NB: Vocal melody and text only encoded.
**kern	**silbe
*clefG2	*
*k[b-e-a-]	*
*M3/4	*
=1	=1
{8e-	{Nun
8e-	die
4f	Schat-
4e-	-ten
=2	=2
2g	dun-
4f}	-keln,}
=3	=3
{8f	{Stern
8f	an
4g	Stern
4f	er-
=4	=4
(2a-	-wacht,
4g)}	|}
=5	=5
{8a-	{welch
8a-	ein
4b-	Hauch
4a-	der
=6	=6
2cc	Sehn-
4b-}	-sucht}
=7	=7
{8a-	{flu-
8a-	-thet
(4g	durch
8b-)	|
8b-	die
=8	=8
4.ee-}	Nacht!}
8r	.
4r	.
=9	=9
{8e-	{Durch
8e-	das
4f	Meer
4e-	der
=10	=10
2g	Tra2u-
4f}	-me}
=11	=11
{8f	{steu-
8f	-ert
4g	oh-
4f	-ne
=12	=12
(2a-	Ruh',
4g)}	|}
=13	=13
{8a-	{steu-
8a-	-ert
4b-	mei-
4a-	-ne
=14	=14
2cc	See-
4b-}	-le}
=15	=15
{8a-	{Dei-
8a-	-ner
(4g	See-
8b-)	|
8b-	-le
=16	=16
4.ee-}	zu.}
8r	.
4r	.
=17	=17
{8e-	{Die
8e-	sich
4f	Dir
4g	er-
=18	=18
2g	-ge-
4f}	-ben,}
=19	=19
{8f	{nimm
8f	sie
4g	ganz
4a-	da-
=20	=20
(2a-	-hin!
4g)}	|}
=21	=21
{8a-	{Ach,
8a-	Du
4b-	weisst,
4cc	dass
=22	=22
2cc	nim-
4b-}	-mer}
=23	=23
{8a-	{ich
8cc	mein
(8ff	ei-
8ee-)	|
(8dd	-gen
8cc)	|
=24	=24
8b-	bin,
8e-	mein
4g	ei-
4f	-gen
=25	=25
4e-}	bin.}
4r	.
4r	.
*-	*-
